material/.icons/material/numeric-5.svg

<svg xmlns="http://www.w3.org/2000/svg" viewBox="0 0 24 24"><path d="M9 7v6h4v2H9v2h4a2 2 0 002-2v-2a2 2 0 00-2-2h-2V9h4V7H9z"/></svg>

<?xml version="1.0" encoding="UTF-8"?><!DOCTYPE svg PUBLIC "-//W3C//DTD SVG 1.1//EN" "http://www.w3.org/Graphics/SVG/1.1/DTD/svg11.dtd"><svg xmlns="http://www.w3.org/2000/svg" xmlns:xlink="http://www.w3.org/1999/xlink" version="1.1" id="mdi-numeric-5" width="24" height="24" viewBox="0 0 24 24"><path d="M9,7V13H13V15H9V17H13A2,2 0 0,0 15,15V13A2,2 0 0,0 13,11H11V9H15V7H9Z" /></svg>
